symbols/web/security_update_good/materialsymbolsoutlined/security_update_good_wght300grad200fill1_24px.svg

<svg xmlns="http://www.w3.org/2000/svg" height="24" width="24"><path d="M11.025 15.125 8.1 12.2l1.5-1.5 1.45 1.45 3.625-3.625L16.15 10ZM6.9 18.05h10.2V5.95H6.9Zm.3 5.3q-1.025 0-1.737-.712-.713-.713-.713-1.738V3.1q0-1.025.713-1.738Q6.175.65 7.2.65h9.6q1.025 0 1.738.712.712.713.712 1.738v17.8q0 1.025-.712 1.738-.713.712-1.738.712Z"/></svg>

<svg xmlns="http://www.w3.org/2000/svg" height="24" width="24"><path d="M11.025 15.125 8.1 12.2 9.6 10.7 11.05 12.15 14.675 8.525 16.15 10ZM6.9 18.05H17.1V5.95H6.9ZM7.2 23.35Q6.175 23.35 5.463 22.638Q4.75 21.925 4.75 20.9V3.1Q4.75 2.075 5.463 1.362Q6.175 0.65 7.2 0.65H16.8Q17.825 0.65 18.538 1.362Q19.25 2.075 19.25 3.1V20.9Q19.25 21.925 18.538 22.638Q17.825 23.35 16.8 23.35Z"/></svg>
